X: 10994
T: Drunken Landlady, The
R: reel
M: 4/4
K: Adorian
Bd|:eA A2 edBd|eA A2 edBd|dedB G3A|Bddg ed (3Bcd|
eA A2 edBd|eA A2 ed (3Bcd|d2 ef g3a|1 gedB A2 Bd:|2 gedB A3d||
|:eaag a2 ga|b2 gb abge|dedB G3A|Bddg ed (3Bcd|
eaag a2 ga|b2 gb abge|d2 ef g3a|1 gedB A3d:|2 gedB A2 (3Bcd||

